X: 11135
T: Duke Of York Troops, The
R: waltz
M: 3/4
K: Gmajor
|:def|g2 d2 d2|d3 e dc|B2 G2 G2|G3 B AG|F2 A2 A2|G2 B2 B2|
A2 c2 c2|B3 def|g2 d2 d2|d3 edc|B2 G2 G2|G4 d2|e3 fge|
d2 Bd Bd|c2 A2 F2|1 G3 def:|2 G3 G2G|:F2 A2 A2|G2 B2 B2|A2 c2 c2|
B3 d BG|DF AF AF|DG BG BG|AB cB cA|B3 d ef|g2 d2 d2|d3 e dc|
B2 G2 G2|G4 d2|e3 f ge|d2 Bd Bd|c2 A2 F2|1 G3 G2 G:|2 G4 A2||
|:B2 d2 d2|^d2 e2 e2|A2 c2 c2|^c2 d2 d2|G2 F2 A2|G3 d ef|gf gd BG|
d4 c2|Bc d2 d2|^de e2 e2|AB c2 c2|^cd d2 d2|gf gf ed|
ed cB AG|ce dB cA|1 G4 A2:|2 G4||

